icons/printerB.svg

<svg width="24" height="24" viewBox="0 0 24 24" fill="none" xmlns="http://www.w3.org/2000/svg">
<path d="M20.9001 10V14C20.9001 14.9 20.2001 15.6 19.3001 15.6H16.0001V14.1C16.0001 13.5 15.5001 13 14.9001 13H9.2001C8.6001 13 8.1001 13.5 8.1001 14.1V15.6H4.7001C3.8001 15.6 3.1001 14.9 3.1001 14V10C3.1001 9.10002 3.8001 8.40002 4.7001 8.40002H19.4001C20.2001 8.40002 20.9001 9.10002 20.9001 10Z" fill="black"/>
<path fill-rule="evenodd" clip-rule="evenodd" d="M4.7001 9.15002C4.21431 9.15002 3.8501 9.51424 3.8501 10V14C3.8501 14.4858 4.21431 14.85 4.7001 14.85H7.3501V14.1C7.3501 13.0858 8.18589 12.25 9.2001 12.25H14.9001C15.9143 12.25 16.7501 13.0858 16.7501 14.1V14.85H19.3001C19.7859 14.85 20.1501 14.4858 20.1501 14V10C20.1501 9.48247 19.7548 9.15002 19.4001 9.15002H4.7001ZM2.3501 10C2.3501 8.68581 3.38588 7.65002 4.7001 7.65002H19.4001C20.6454 7.65002 21.6501 8.71758 21.6501 10V14C21.6501 15.3142 20.6143 16.35 19.3001 16.35H15.2501V14.1C15.2501 13.9142 15.0859 13.75 14.9001 13.75H9.2001C9.01431 13.75 8.8501 13.9142 8.8501 14.1V16.35H4.7001C3.38588 16.35 2.3501 15.3142 2.3501 14V10Z" fill="black"/>
<path fill-rule="evenodd" clip-rule="evenodd" d="M15.1485 13.6961C15.1133 13.6631 15.0461 13.6225 14.9061 13.6425L14.8533 13.65H9.1C8.91421 13.65 8.75 13.8142 8.75 14V18.5C8.75 18.8858 9.11421 19.25 9.5 19.25H14.5C14.8858 19.25 15.25 18.8858 15.25 18.5V14C15.25 13.8282 15.1908 13.736 15.1485 13.6961ZM16.1765 12.6038C16.5592 12.964 16.75 13.4718 16.75 14V18.5C16.75 19.7142 15.7142 20.75 14.5 20.75H9.5C8.28579 20.75 7.25 19.7142 7.25 18.5V14C7.25 12.9858 8.08579 12.15 9.1 12.15H14.7528C15.2911 12.089 15.8003 12.2498 16.1765 12.6038Z" fill="black"/>
<path fill-rule="evenodd" clip-rule="evenodd" d="M8.84283 4.84283C8.76059 4.92507 8.75 4.99392 8.75 5V7.65H15.25V5C15.25 4.87044 15.2101 4.82075 15.1947 4.80533C15.1793 4.78991 15.1296 4.75 15 4.75H9C8.99392 4.75 8.92507 4.76059 8.84283 4.84283ZM7.78217 3.78217C8.07493 3.48941 8.50608 3.25 9 3.25H15C15.4704 3.25 15.9207 3.41009 16.2553 3.74467C16.5899 4.07925 16.75 4.52956 16.75 5V9.15H7.25V5C7.25 4.50608 7.48941 4.07493 7.78217 3.78217Z" fill="black"/>
</svg>

<svg xmlns="http://www.w3.org/2000/svg" fill="none" viewBox="0 0 24 24">
  <path fill="#000" d="M20.9 10v4c0 .9-.7 1.6-1.6 1.6H16v-1.5c0-.6-.5-1.1-1.1-1.1H9.2c-.6 0-1.1.5-1.1 1.1v1.5H4.7c-.9 0-1.6-.7-1.6-1.6v-4c0-.9.7-1.6 1.6-1.6h14.7c.8 0 1.5.7 1.5 1.6Z"/>
  <path fill="#000" fill-rule="evenodd" d="M4.7 9.15a.83.83 0 0 0-.85.85v4c0 .486.364.85.85.85h2.65v-.75a1.86 1.86 0 0 1 1.85-1.85h5.7a1.86 1.86 0 0 1 1.85 1.85v.75h2.55a.83.83 0 0 0 .85-.85v-4c0-.518-.395-.85-.75-.85H4.7ZM2.35 10A2.33 2.33 0 0 1 4.7 7.65h14.7c1.245 0 2.25 1.068 2.25 2.35v4a2.33 2.33 0 0 1-2.35 2.35h-4.05V14.1a.36.36 0 0 0-.35-.35H9.2a.36.36 0 0 0-.35.35v2.25H4.7A2.33 2.33 0 0 1 2.35 14v-4Z" clip-rule="evenodd"/>
  <path fill="#000" fill-rule="evenodd" d="M15.149 13.696c-.036-.033-.103-.073-.243-.053l-.053.007H9.1a.36.36 0 0 0-.35.35v4.5c0 .386.364.75.75.75h5c.386 0 .75-.364.75-.75V14c0-.172-.06-.264-.101-.304Zm1.028-1.092c.382.36.573.868.573 1.396v4.5c0 1.214-1.036 2.25-2.25 2.25h-5c-1.214 0-2.25-1.036-2.25-2.25V14a1.86 1.86 0 0 1 1.85-1.85h5.653c.538-.061 1.047.1 1.424.454ZM8.843 4.843c-.082.082-.093.15-.093.157v2.65h6.5V5c0-.13-.04-.18-.055-.195-.016-.015-.065-.055-.195-.055H9c-.006 0-.075.01-.157.093Zm-1.06-1.06c.292-.294.723-.533 1.217-.533h6c.47 0 .92.16 1.255.495.335.334.495.785.495 1.255v4.15h-9.5V5c0-.494.24-.925.532-1.218Z" clip-rule="evenodd"/>
</svg>
